svg/u1f646_1f3fc_200d_2642.svg

<svg viewBox="0 0 128 128" xmlns="http://www.w3.org/2000/svg">
  <linearGradient id="shirt_3_" gradientTransform="matrix(1 0 0 -1 0 128)" gradientUnits="userSpaceOnUse" x1="64" x2="64" y1="106.9705" y2="4.4591">
    <stop offset="0" stop-color="#00BFA5"/>
    <stop offset="0.4701" stop-color="#00B29A"/>
    <stop offset="1" stop-color="#009E89"/>
  </linearGradient>
  <path id="shirt_2_" d="M108.03,124c0,0-11.57-29.06-11.83-28.44c-1.81,4.33-3.83,7.43-11.75,4.83 c-6.39-2.1-11.83-2.5-20.15-2.5c-0.2,0-0.4,0-0.6,0c-8.32,0-13.76,0.4-20.15,2.5c-7.92,2.6-9.94-0.5-11.75-4.83 C31.54,94.95,19.97,124,19.97,124H108.03z" fill="url(#shirt_3_)"/>
  <g id="neck">
    <path d="M54.92,90.08v9.98c0,4.51,3.7,8.17,8.26,8.17h1.65c4.56,0,8.26-3.66,8.26-8.17v-9.98L54.92,90.08z" fill="#C48E6A"/>
  </g>
  <g id="ears">
    <path d="M91.12,50.43H36.47c-5.89,0-10.71,5.14-10.71,11.41s4.82,11.41,10.71,11.41h54.65 c5.89,0,10.71-5.14,10.71-11.41S97.01,50.43,91.12,50.43z" fill="#C48E6A"/>
  </g>
  <path id="head" d="M64,11.07L64,11.07L64,11.07c-17.4,0-33.52,18.61-33.52,45.4 c0,26.64,16.61,39.81,33.52,39.81S97.52,83.1,97.52,56.46C97.52,29.68,81.4,11.07,64,11.07z" fill="#E0BB95"/>
  <path id="nose" d="M67.86,68.06c-0.11-0.04-0.21-0.07-0.32-0.08h-7.08c-0.11,0.01-0.22,0.04-0.32,0.08 c-0.64,0.26-0.99,0.92-0.69,1.63c0.3,0.71,1.71,2.69,4.55,2.69s4.25-1.99,4.55-2.69C68.85,68.98,68.5,68.32,67.86,68.06z" fill="#C48E6A"/>
  <path id="mouth" d="M72.42,76.14c-3.18,1.89-13.63,1.89-16.81,0c-1.83-1.09-3.7,0.58-2.94,2.24 c0.75,1.63,6.44,5.42,11.37,5.42s10.55-3.79,11.3-5.42C76.09,76.72,74.25,75.05,72.42,76.14z" fill="#6D4C41"/>
  <g id="eyes">
    <ellipse cx="47.56" cy="58.81" fill="#5D4037" rx="4.93" ry="5.1"/>
    <ellipse cx="80.44" cy="58.81" fill="#5D4037" rx="4.93" ry="5.1"/>
  </g>
  <g id="eyebrows">
    <path d="M40.02,50.73c3.18-4.51,10.66-4.66,14.41-0.82c0.65,0.67,1.34,1.53,0.85,2.5 c-0.54,1.07-1.65,0.9-2.56,0.53c-2.43-0.98-4.94-1.42-7.55-0.89c-1.13,0.23-2.1,0.7-3.17,1.08C40.56,53.62,39.09,52.12,40.02,50.73 z" fill="#AB872F"/>
    <path d="M86.08,53.13c-2.23-0.97-4.49-1.53-6.95-1.25c-1.12,0.13-2.22,0.42-3.26,0.83 c-0.83,0.33-1.72,0.86-2.58,0.28c-2.45-1.69,1.89-4.44,3.17-4.99c2.76-1.19,6.05-1.08,8.72,0.31c1.06,0.55,2.21,1.35,2.84,2.4 C88.81,52.02,87.63,53.76,86.08,53.13z" fill="#AB872F"/>
  </g>
  <g id="hairGroup">
    <path id="hair_7_" d="M64.02,4.03L64.02,4.03c-0.01,0-0.01,0-0.02,0s-0.01,0-0.02,0l0,0 C18.55,4.27,27.85,56.17,27.85,56.17s2.04,5.35,2.97,7.71c0.13,0.34,0.63,0.3,0.71-0.05c0.97-4.34,4.46-19.73,6.22-24.41 c1.04-2.76,3.9-4.36,6.79-3.83C49,36.4,56.09,37.4,63.92,37.4c0.03,0,0.06,0,0.08,0s0.06,0,0.08,0c7.82,0,14.92-1,19.37-1.81 c2.9-0.53,5.76,1.08,6.79,3.83c1.75,4.66,5.22,19.96,6.2,24.36c0.08,0.36,0.58,0.39,0.71,0.05l2.98-7.67 C100.15,56.17,109.46,4.27,64.02,4.03z" fill="#AB872F"/>
    <radialGradient id="hairHighlights_1_" cx="64.0005" cy="80.9011" gradientTransform="matrix(1 0 0 -1.1282 0 138.3704)" gradientUnits="userSpaceOnUse" r="38.0924">
      <stop offset="0.7945" stop-color="#BFA055" stop-opacity="0"/>
      <stop offset="1" stop-color="#BFA055"/>
    </radialGradient>
    <path id="hairHighlights" d="M100.15,56.17c0,0,9.31-51.9-36.13-52.14v0 c-0.01,0-0.01,0-0.02,0h0c-0.01,0-0.01,0-0.02,0l0,0c-0.71,0-1.4,0.02-2.08,0.05c-1.35,0.06-2.66,0.16-3.92,0.31 c-0.01,0-0.03,0-0.04,0c-0.09,0.01-0.17,0.03-0.26,0.04C19.44,9.24,27.85,56.17,27.85,56.17l2.98,7.68 c0.13,0.34,0.62,0.31,0.7-0.05c0.98-4.39,4.46-19.71,6.22-24.37c1.04-2.76,3.9-4.36,6.79-3.83C49,36.4,56.09,37.4,63.92,37.4 c0.03,0,0.06,0,0.08,0s0.06,0,0.08,0c7.82,0,14.92-1,19.37-1.81c2.9-0.53,5.76,1.08,6.79,3.83c1.76,4.68,5.25,20.1,6.21,24.42 c0.08,0.36,0.57,0.39,0.7,0.05C98.1,61.54,100.15,56.17,100.15,56.17z" fill="url(#hairHighlights_1_)"/>
  </g>
  <linearGradient id="hand_2_" gradientTransform="matrix(1 0 0 -1 -117.6717 128)" gradientUnits="userSpaceOnUse" x1="183.1975" x2="142.8956" y1="108.127" y2="108.127">
    <stop offset="0.5999" stop-color="#E0BB95"/>
    <stop offset="1" stop-color="#CCA47A"/>
  </linearGradient>
  <path id="hand" d="M29.3,16.62c2.89-3.2,7.99-6.2,13.53-8.3c8.58-3.25,11.63-3.97,16.51-4.01 c2.23-0.02,3.22,0.59,2.84,1.81c-0.42,1.34-1.53,2.55-4.45,2.68c-4.48,0.37-7.1,1.98-11.26,4.34c-1.96,0.93-3.49,5.68-5.56,7.15 c-1.91,1.36-6.58,5.89-7.93,13.97c-0.4,2.38-10.89,1.1-11.02-3.64C21.92,29.27,24.05,22.43,29.3,16.62z" fill="url(#hand_2_)"/>
  <linearGradient id="shirt_4_" gradientTransform="matrix(1 0 0 -1 0 128)" gradientUnits="userSpaceOnUse" x1="21.1266" x2="21.1266" y1="106.9705" y2="4.4591">
    <stop offset="0" stop-color="#00BFA5"/>
    <stop offset="0.4701" stop-color="#00B29A"/>
    <stop offset="1" stop-color="#009E89"/>
  </linearGradient>
  <path id="shirt_1_" d="M37.82,29.12c0.29-1,0.22-2.22-1.02-2.91l-11.38-5.99 c-0.27-0.13-0.56-0.19-0.85-0.19c-0.87,0-1.72,0.56-2.04,1.34L5.97,64.19c-1.12,3.03-2.18,6.19-1.42,10.35 c0,0,9.09,46.16,10.21,49.46h1.57h1.61h19.38l-4.66-25.96c-7.27-20.18-7.22-26.71-6.53-29.13L37.82,29.12z" fill="url(#shirt_4_)"/>
  <linearGradient id="hand_3_" gradientTransform="matrix(-1 0 0 -1 212.8882 128)" gradientUnits="userSpaceOnUse" x1="147.1496" x2="106.8477" y1="108.127" y2="108.127">
    <stop offset="0.5999" stop-color="#E0BB95"/>
    <stop offset="1" stop-color="#CCA47A"/>
  </linearGradient>
  <path id="hand_1_" d="M98.7,16.62c-2.89-3.2-7.99-6.2-13.53-8.3C76.6,5.07,73.54,4.35,68.66,4.32 c-2.23-0.02-3.22,0.59-2.84,1.81c0.42,1.34,1.53,2.55,4.45,2.68c4.48,0.37,7.1,1.98,11.26,4.34c1.96,0.93,3.49,5.68,5.56,7.15 c1.91,1.36,6.58,5.89,7.93,13.97c0.4,2.38,10.89,1.1,11.02-3.64C106.08,29.27,103.95,22.43,98.7,16.62z" fill="url(#hand_3_)"/>
  <linearGradient id="shirt_5_" gradientTransform="matrix(1 0 0 -1 0 128)" gradientUnits="userSpaceOnUse" x1="106.8739" x2="106.8739" y1="106.9705" y2="4.4591">
    <stop offset="0" stop-color="#00BFA5"/>
    <stop offset="0.4701" stop-color="#00B29A"/>
    <stop offset="1" stop-color="#009E89"/>
  </linearGradient>
  <path id="shirt" d="M122.03,64.19l-16.56-42.81c-0.32-0.78-1.17-1.34-2.04-1.34 c-0.29,0-0.57,0.06-0.85,0.19L91.2,26.22c-1.24,0.69-1.31,1.91-1.02,2.91l11.7,39.79c0.69,2.42,0.74,8.95-6.53,29.13L90.69,124 h19.38h1.61h1.57c1.12-3.3,10.21-49.46,10.21-49.46C124.21,70.38,123.15,67.21,122.03,64.19z" fill="url(#shirt_5_)"/>
</svg>

<svg viewBox="0 0 128 128" xmlns="http://www.w3.org/2000/svg">
  <defs>
    <linearGradient id="hand_2_" gradientTransform="matrix(1 0 0 -1 0 0)" gradientUnits="userSpaceOnUse" x1="65.5258" x2="25.2239" y1="-19.873" y2="-19.873">
      <stop offset="0.5999" stop-color="#E0BB95"/>
      <stop offset="1" stop-color="#CCA47A"/>
    </linearGradient>
    <linearGradient id="hand_3_" gradientTransform="matrix(-1 0 0 -1 0 0)" gradientUnits="userSpaceOnUse" x1="-65.7386" x2="-106.0405" y1="-19.873" y2="-19.873">
      <stop offset="0.5999" stop-color="#E0BB95"/>
      <stop offset="1" stop-color="#CCA47A"/>
    </linearGradient>
    <linearGradient id="shirt_3_" gradientTransform="matrix(1 0 0 -1 0 0)" gradientUnits="userSpaceOnUse" x1="64" x2="64" y1="-21.0295" y2="-123.5409">
      <stop offset="0" stop-color="#00BFA5"/>
      <stop offset="0.4701" stop-color="#00B29A"/>
      <stop offset="1" stop-color="#009E89"/>
    </linearGradient>
    <linearGradient id="shirt_4_" gradientTransform="matrix(1 0 0 -1 0 0)" gradientUnits="userSpaceOnUse" x1="21.1266" x2="21.1266" y1="-21.0295" y2="-123.5409">
      <stop offset="0" stop-color="#00BFA5"/>
      <stop offset="0.4701" stop-color="#00B29A"/>
      <stop offset="1" stop-color="#009E89"/>
    </linearGradient>
    <linearGradient id="shirt_5_" gradientTransform="matrix(1 0 0 -1 0 0)" gradientUnits="userSpaceOnUse" x1="106.8739" x2="106.8739" y1="-21.0295" y2="-123.5409">
      <stop offset="0" stop-color="#00BFA5"/>
      <stop offset="0.4701" stop-color="#00B29A"/>
      <stop offset="1" stop-color="#009E89"/>
    </linearGradient>
    <radialGradient id="hairHighlights_1_" cx="64.0005" cy="-41.745948" gradientTransform="matrix(1 0 0 -1.1282 0 0)" gradientUnits="userSpaceOnUse" r="38.0924">
      <stop offset="0.7945" stop-color="#BFA055" stop-opacity="0"/>
      <stop offset="1" stop-color="#BFA055"/>
    </radialGradient>
  </defs>
  <path id="shirt_2_" d="M108.03,124 C108.03,124 96.46,94.94 96.2,95.56 C94.39,99.89 92.37,102.99 84.45,100.39 C78.06,98.29 72.62,97.89 64.3,97.89 C64.1,97.89 63.9,97.89 63.7,97.89 C55.38,97.89 49.94,98.29 43.55,100.39 C35.63,102.99 33.61,99.89 31.8,95.56 C31.54,94.95 19.97,124 19.97,124 L108.03,124 Z" fill="url(#shirt_3_)"/>
  <path d="M54.92,90.08 L54.92,100.06 C54.92,104.57 58.62,108.23 63.18,108.23 L64.83,108.23 C69.39,108.23 73.09,104.57 73.09,100.06 L73.09,90.08 L54.92,90.08 Z" fill="#C48E6A"/>
  <path d="M91.12,50.43 L36.47,50.43 C30.58,50.43 25.76,55.57 25.76,61.84 C25.76,68.11 30.58,73.25 36.47,73.25 L91.12,73.25 C97.01,73.25 101.83,68.11 101.83,61.84 C101.83,55.57 97.01,50.43 91.12,50.43 Z" fill="#C48E6A"/>
  <path id="head" d="M64,11.07 L64,11.07 L64,11.07 C46.6,11.07 30.48,29.68 30.48,56.47 C30.48,83.11 47.09,96.28 64,96.28 C80.91,96.28 97.52,83.1 97.52,56.46 C97.52,29.68 81.4,11.07 64,11.07 Z" fill="#E0BB95"/>
  <path id="nose" d="M67.86,68.06 C67.75,68.02 67.65,67.99 67.54,67.98 L60.46,67.98 C60.35,67.99 60.24,68.02 60.14,68.06 C59.5,68.32 59.15,68.98 59.45,69.69 C59.75,70.4 61.16,72.38 64,72.38 C66.84,72.38 68.25,70.39 68.55,69.69 C68.85,68.98 68.5,68.32 67.86,68.06 Z" fill="#C48E6A"/>
  <path id="mouth" d="M72.42,76.14 C69.24,78.03 58.79,78.03 55.61,76.14 C53.78,75.05 51.91,76.72 52.67,78.38 C53.42,80.01 59.11,83.8 64.04,83.8 C68.97,83.8 74.59,80.01 75.34,78.38 C76.09,76.72 74.25,75.05 72.42,76.14 Z" fill="#6D4C41"/>
  <path d="M52.49,58.81 A4.93 5.1 0 1 1 42.63,58.81 A4.93 5.1 0 1 1 52.49,58.81 Z" fill="#5D4037"/>
  <path d="M85.37,58.81 A4.93 5.1 0 1 1 75.51,58.81 A4.93 5.1 0 1 1 85.37,58.81 Z" fill="#5D4037"/>
  <path d="M40.02,50.73 C43.2,46.22 50.68,46.07 54.43,49.91 C55.08,50.58 55.77,51.44 55.28,52.41 C54.74,53.48 53.63,53.31 52.72,52.94 C50.29,51.96 47.78,51.52 45.17,52.05 C44.04,52.28 43.07,52.75 42,53.13 C40.56,53.62 39.09,52.12 40.02,50.73 Z" fill="#AB872F"/>
  <path d="M86.08,53.13 C83.85,52.16 81.59,51.6 79.13,51.88 C78.01,52.01 76.91,52.3 75.87,52.71 C75.04,53.04 74.15,53.57 73.29,52.99 C70.84,51.3 75.18,48.55 76.46,48 C79.22,46.81 82.51,46.92 85.18,48.31 C86.24,48.86 87.39,49.66 88.02,50.71 C88.81,52.02 87.63,53.76 86.08,53.13 Z" fill="#AB872F"/>
  <path id="hair_7_" d="M64.02,4.03 L64.02,4.03 C64.01,4.03 64.01,4.03 64,4.03 C63.99,4.03 63.99,4.03 63.98,4.03 L63.98,4.03 C18.55,4.27 27.85,56.17 27.85,56.17 C27.85,56.17 29.89,61.52 30.82,63.88 C30.95,64.22 31.45,64.18 31.53,63.83 C32.5,59.49 35.99,44.1 37.75,39.42 C38.79,36.66 41.65,35.06 44.54,35.59 C49,36.4 56.09,37.4 63.92,37.4 C63.95,37.4 63.98,37.4 64,37.4 C64.02,37.4 64.06,37.4 64.08,37.4 C71.9,37.4 79,36.4 83.45,35.59 C86.35,35.06 89.21,36.67 90.24,39.42 C91.99,44.08 95.46,59.38 96.44,63.78 C96.52,64.14 97.02,64.17 97.15,63.83 L100.13,56.16 C100.15,56.17 109.46,4.27 64.02,4.03 Z" fill="#AB872F"/>
  <path id="hairHighlights" d="M100.15,56.17 C100.15,56.17 109.46,4.27 64.02,4.03 L64.02,4.03 C64.01,4.03 64.01,4.03 64,4.03 L64,4.03 C63.99,4.03 63.99,4.03 63.98,4.03 L63.98,4.03 C63.27,4.03 62.58,4.05 61.9,4.08 C60.55,4.14 59.24,4.24 57.98,4.39 C57.97,4.39 57.95,4.39 57.94,4.39 C57.85,4.4 57.77,4.42 57.68,4.43 C19.44,9.24 27.85,56.17 27.85,56.17 L30.83,63.85 C30.96,64.19 31.45,64.16 31.53,63.8 C32.51,59.41 35.99,44.09 37.75,39.43 C38.79,36.67 41.65,35.07 44.54,35.6 C49,36.4 56.09,37.4 63.92,37.4 C63.95,37.4 63.98,37.4 64,37.4 C64.02,37.4 64.06,37.4 64.08,37.4 C71.9,37.4 79,36.4 83.45,35.59 C86.35,35.06 89.21,36.67 90.24,39.42 C92,44.1 95.49,59.52 96.45,63.84 C96.53,64.2 97.02,64.23 97.15,63.89 C98.1,61.54 100.15,56.17 100.15,56.17 Z" fill="url(#hairHighlights_1_)"/>
  <path id="hand" d="M29.3,16.62 C32.19,13.42 37.29,10.42 42.83,8.32 C51.41,5.07 54.46,4.35 59.34,4.31 C61.57,4.29 62.56,4.9 62.18,6.12 C61.76,7.46 60.65,8.67 57.73,8.8 C53.25,9.17 50.63,10.78 46.47,13.14 C44.51,14.07 42.98,18.82 40.91,20.29 C39,21.65 34.33,26.18 32.98,34.26 C32.58,36.64 22.09,35.36 21.96,30.62 C21.92,29.27 24.05,22.43 29.3,16.62 Z" fill="url(#hand_2_)"/>
  <path id="shirt_1_" d="M37.82,29.12 C38.11,28.12 38.04,26.9 36.8,26.21 L25.42,20.22 C25.15,20.09 24.86,20.03 24.57,20.03 C23.7,20.03 22.85,20.59 22.53,21.37 L5.97,64.19 C4.85,67.22 3.79,70.38 4.55,74.54 C4.55,74.54 13.64,120.7 14.76,124 L16.33,124 L17.94,124 L37.32,124 L32.66,98.04 C25.39,77.86 25.44,71.33 26.13,68.91 L37.82,29.12 Z" fill="url(#shirt_4_)"/>
  <path id="hand_1_" d="M98.7,16.62 C95.81,13.42 90.71,10.42 85.17,8.32 C76.6,5.07 73.54,4.35 68.66,4.32 C66.43,4.3 65.44,4.91 65.82,6.13 C66.24,7.47 67.35,8.68 70.27,8.81 C74.75,9.18 77.37,10.79 81.53,13.15 C83.49,14.08 85.02,18.83 87.09,20.3 C89,21.66 93.67,26.19 95.02,34.27 C95.42,36.65 105.91,35.37 106.04,30.63 C106.08,29.27 103.95,22.43 98.7,16.62 Z" fill="url(#hand_3_)"/>
  <path id="shirt" d="M122.03,64.19 L105.47,21.38 C105.15,20.6 104.3,20.04 103.43,20.04 C103.14,20.04 102.86,20.1 102.58,20.23 L91.2,26.22 C89.96,26.91 89.89,28.13 90.18,29.13 L101.88,68.92 C102.57,71.34 102.62,77.87 95.35,98.05 L90.69,124 L110.07,124 L111.68,124 L113.25,124 C114.37,120.7 123.46,74.54 123.46,74.54 C124.21,70.38 123.15,67.21 122.03,64.19 Z" fill="url(#shirt_5_)"/>
</svg>
